32x32/actions/mail-forward.svg

<svg xmlns="http://www.w3.org/2000/svg" viewBox="0 0 32 32">
  <defs id="defs3051">
    <style type="text/css" id="current-color-scheme">
      .ColorScheme-Text {
        color:#555e70;
      }
      </style>
  </defs>
 <path 
     style="fill:currentColor;fill-opacity:1;stroke:none" 
     d="M 2 5 L 2 24.683594 L 2 27 L 20 27 L 20 26 L 3 26 L 3 25.111328 L 3.4296875 24.683594 L 12.785156 15.541016 L 16 18.683594 L 19.214844 15.541016 L 21 17.285156 L 21 15.888672 L 19.929688 14.841797 L 28.976562 6 L 29 6 L 29 14 L 30 14 L 30 5 L 2 5 z M 3 6 L 3.0234375 6 L 12.070312 14.841797 L 3 23.707031 L 3 6 z M 4.453125 6 L 27.546875 6 L 16 17.285156 L 4.453125 6 z M 25.484375 16 L 24.755859 16.726562 L 28.996094 20.955078 L 20 21 L 20 22 L 29.060547 21.982422 L 24.755859 26.273438 L 25.484375 27 L 31 21.5 L 25.484375 16 z "
     class="ColorScheme-Text"
     />
</svg>

<svg xmlns="http://www.w3.org/2000/svg" viewBox="0 0 32 32"><path style="fill:currentColor;fill-opacity:1;stroke:none;color:#555e70" d="M2 5v22h18v-1H3v-.889l.43-.427 9.355-9.143L16 18.684l3.215-3.143L21 17.285V15.89l-1.07-1.047L28.977 6H29v8h1V5H2zm1 1h.023l9.047 8.842L3 23.707V6zm1.453 0h23.094L16 17.285 4.453 6zm21.031 10-.728.727 4.24 4.228L20 21v1l9.06-.018-4.304 4.291.728.727L31 21.5 25.484 16z"/></svg>
